logo-core-final-1.svg

<svg xmlns="http://www.w3.org/2000/svg" width="733" height="344" fill="none" viewBox="0 0 733 344"><path fill="#39ff14" d="M703 232h30v30h-30z"/><path fill="#0a0a0a" d="M66.275 108.275v16.775H124.3v14.575H66.275V262h-17.6V139.625H8.525V125.05h40.15v-18.425c0-28.6 15.4-43.175 44.55-43.175 12.65 0 24.2 2.75 34.925 8.525l-5.225 14.85C113.575 81.875 104.5 79.4 94.6 79.4c-19.25 0-28.325 9.35-28.325 28.875M222.361 265.3c-45.65 0-76.175-29.15-76.175-71.775 0-42.9 30.525-71.775 76.175-71.775 45.375 0 76.175 28.875 76.175 71.775 0 42.625-30.8 71.775-76.175 71.775m0-15.95c34.65 0 58.025-22.825 58.025-55.825 0-33.275-23.375-55.825-58.025-55.825-34.925 0-58.3 22.55-58.3 55.825 0 33 23.375 55.825 58.3 55.825m196.911-127.6c4.125 0 8.25.275 11.275.825l-1.1 17.6c-3.575-.825-8.8-1.1-12.65-1.1-24.475 0-44.275 10.175-61.325 31.625V262h-17.6V125.05h17.6v30.525c16.5-22.275 36.575-33.825 63.8-33.825m214.515 0c30.25 0 47.025 19.525 47.025 53.35V262h-17.6v-84.15c0-26.125-11.275-40.15-34.375-40.15-19.525 0-35.475 9.9-48.675 27.225.275 3.3.55 6.6.55 10.175V262h-17.6v-84.15c0-26.125-11.55-40.15-33.275-40.15-19.525 0-35.75 11-48.95 30.525V262h-17.6V125.05h17.6v28.05c14.575-20.9 32.45-31.35 53.9-31.35 21.725 0 36.85 11.275 42.9 31.35 14.3-19.25 32.45-31.35 56.1-31.35"/></svg>

<svg xmlns="http://www.w3.org/2000/svg" width="733" height="344" viewBox="0 0 733 344" fill="none">
<rect x="703" y="232" width="30" height="30" fill="#39FF14"/>
<path d="M66.275 108.275V125.05H124.3V139.625H66.275V262H48.675V139.625H8.525V125.05H48.675V106.625C48.675 78.025 64.075 63.45 93.225 63.45C105.875 63.45 117.425 66.2 128.15 71.975L122.925 86.825C113.575 81.875 104.5 79.4 94.6 79.4C75.35 79.4 66.275 88.75 66.275 108.275ZM222.361 265.3C176.711 265.3 146.186 236.15 146.186 193.525C146.186 150.625 176.711 121.75 222.361 121.75C267.736 121.75 298.536 150.625 298.536 193.525C298.536 236.15 267.736 265.3 222.361 265.3ZM222.361 249.35C257.011 249.35 280.386 226.525 280.386 193.525C280.386 160.25 257.011 137.7 222.361 137.7C187.436 137.7 164.061 160.25 164.061 193.525C164.061 226.525 187.436 249.35 222.361 249.35ZM419.272 121.75C423.397 121.75 427.522 122.025 430.547 122.575L429.447 140.175C425.872 139.35 420.647 139.075 416.797 139.075C392.322 139.075 372.522 149.25 355.472 170.7V262H337.872V125.05H355.472V155.575C371.972 133.3 392.047 121.75 419.272 121.75ZM633.787 121.75C664.037 121.75 680.812 141.275 680.812 175.1V262H663.212V177.85C663.212 151.725 651.937 137.7 628.837 137.7C609.312 137.7 593.362 147.6 580.162 164.925C580.437 168.225 580.712 171.525 580.712 175.1V262H563.112V177.85C563.112 151.725 551.562 137.7 529.837 137.7C510.312 137.7 494.087 148.7 480.887 168.225V262H463.287V125.05H480.887V153.1C495.462 132.2 513.337 121.75 534.787 121.75C556.512 121.75 571.637 133.025 577.687 153.1C591.987 133.85 610.137 121.75 633.787 121.75Z" fill="#0A0A0A"/>
</svg>
